originals/xmcc.svg

<svg xmlns="http://www.w3.org/2000/svg" data-name="Слой 1" viewBox="0 0 100 75.4"><path d="M77.84 0h-21.5l-6.39 11.05L43.58 0H22.07L0 38.23l21.37 37 14.49-25.08L50 74.57l14.1-24.42L78.62 75.4l21.38-37Zm-56.5 60.6L8.42 38.24l10.28-17.8 12.92 22.38-10.28 17.8Zm1.6-47.51 3.41-5.92h12.88l6.48 11.22-9.85 17.08Zm27 46.8L40.1 42.8l9.85-17.07 4.4 7.6 5.46 9.47-9.86 17.07Zm4.24-41.5 6.49-11.22h12.88L77 13.09 64 35.47Zm33.2 27.24-8.72 15.13-10.37-18 12.92-22.33 3.48 6 6.89 11.93Z" style="fill:#dd0632"/></svg>

<svg id="Слой_1" data-name="Слой 1" xmlns="http://www.w3.org/2000/svg" viewBox="0 0 100 75.4"><defs><style>.cls-1{fill:#dd0632;}</style></defs><title>Monoeci (XMCC)</title><path class="cls-1" d="M77.84,0H56.34L49.95,11.05,43.58,0H22.07L0,38.23l21.37,37L35.86,50.15,50,74.57l14.1-24.42L78.62,75.4,100,38.4ZM21.34,60.6,8.42,38.24,18.7,20.44,31.62,42.82,21.34,60.62Zm1.6-47.51,3.41-5.92H39.23l6.48,11.22L35.86,35.47Zm27,46.8L40.1,42.8l9.85-17.07,4.4,7.6,5.46,9.47L49.95,59.87Zm4.24-41.5L60.67,7.17H73.55L77,13.09,64,35.47Zm33.2,27.24L78.66,60.76l-10.37-18L81.21,20.43l3.48,6,6.89,11.93Z"/></svg>
